src/assets/images/prototype/autres-elements/2-wc.svg

<svg width="253" height="848" viewBox="0 0 253 848" fill="none" xmlns="http://www.w3.org/2000/svg">
<mask id="mask0_1062_1123" style="mask-type:alpha" maskUnits="userSpaceOnUse" x="0" y="0" width="253" height="848">
<rect width="253" height="848" fill="#D9D9D9"/>
</mask>
<g mask="url(#mask0_1062_1123)">
<path d="M25.4698 793.224C27.3157 814.76 42.6469 833.475 50.0818 840.141L232.364 840.141C247.747 840.141 239.286 312.521 232.364 301.753C225.442 290.986 214.674 283.294 187.755 272.527C166.22 263.912 137.249 236.121 125.456 223.303L65.4642 174.848C60.3367 187.41 45.1593 221.918 25.4697 259.451C0.857718 306.368 23.1624 766.305 25.4698 793.224Z" fill="white" stroke="#81EC40" stroke-width="9"/>
<path d="M133.156 112C126.491 115.589 111.313 125.537 103.93 136.612L147.001 158.917C144.539 152.148 152.641 133.535 156.999 125.075L133.156 112Z" fill="white" stroke="#81EC40" stroke-width="9"/>
<path d="M89.8493 130.469L57.0078 182.538L130.844 225.609L159.301 166.387C159.301 166.387 140.147 146.387 125.575 138.428C111.003 130.469 89.8493 130.469 89.8493 130.469Z" fill="white" stroke="#81EC40" stroke-width="9"/>
</g>
</svg>

<svg width="253" height="848" fill="none" xmlns="http://www.w3.org/2000/svg"><mask id="a" style="mask-type:alpha" maskUnits="userSpaceOnUse" x="0" y="0" width="253" height="848"><path fill="#D9D9D9" d="M0 0h253v848H0z"/></mask><g mask="url(#a)" fill="#fff" stroke="#81EC40" stroke-width="9"><path d="M25.47 793.224c1.846 21.536 17.177 40.251 24.612 46.917h182.282c15.383 0 6.922-527.62 0-538.388-6.922-10.767-17.69-18.459-44.609-29.226-21.535-8.615-50.506-36.406-62.299-49.224l-59.992-48.455c-5.127 12.562-20.305 47.07-39.994 84.603-24.612 46.917-2.308 506.854 0 533.773zM133.156 112c-6.665 3.589-21.843 13.537-29.226 24.612l43.071 22.305c-2.462-6.769 5.64-25.382 9.998-33.842L133.156 112z"/><path d="M89.85 130.469l-32.842 52.069 73.836 43.071 28.457-59.222s-19.154-20-33.726-27.959-35.726-7.959-35.726-7.959z"/></g></svg>
